src/assets/svg/facebook.svg

<svg width="27" height="27" viewBox="0 0 27 27" fill="none" xmlns="http://www.w3.org/2000/svg">
<path d="M13.2488 0.428711C6.16019 0.428711 0.391602 6.1973 0.391602 13.2859C0.391602 20.3745 6.16019 26.1431 13.2488 26.1431C20.3374 26.1431 26.106 20.3745 26.106 13.2859C26.106 6.1973 20.3374 0.428711 13.2488 0.428711ZM13.2488 2.57158C19.1792 2.57158 23.9631 7.35552 23.9631 13.2859C23.9657 15.8509 23.046 18.3313 21.3717 20.2744C19.6974 22.2176 17.3802 23.4939 14.8431 23.8706V16.4102H17.8945L18.3734 13.3105H14.8431V11.6177C14.8431 10.332 15.2663 9.18874 16.4695 9.18874H18.4035V6.48445C18.0638 6.43837 17.3449 6.33873 15.9863 6.33873C13.1491 6.33873 11.4863 7.83659 11.4863 11.2502V13.3105H8.56984V16.4102H11.4863V23.8438C8.98422 23.432 6.71009 22.144 5.07022 20.2099C3.43034 18.2758 2.53156 15.8216 2.53447 13.2859C2.53447 7.35552 7.31841 2.57158 13.2488 2.57158Z" fill="#141416" fillOpacity="0.7"/>
</svg>

<svg xmlns="http://www.w3.org/2000/svg" width="27" height="27" fill="none"><path fill="#141416" d="M13.249.429C6.16.429.392 6.197.392 13.286S6.16 26.143 13.249 26.143s12.857-5.768 12.857-12.857S20.337.429 13.249.429m0 2.143c5.93 0 10.714 4.784 10.714 10.714a10.69 10.69 0 0 1-9.12 10.585v-7.46h3.052l.478-3.1h-3.53v-1.693c0-1.286.423-2.43 1.627-2.43h1.934V6.485c-.34-.046-1.06-.145-2.418-.145-2.837 0-4.5 1.498-4.5 4.911v2.06H8.57v3.1h2.916v7.434a10.69 10.69 0 0 1-8.952-10.558c0-5.93 4.784-10.714 10.715-10.714"/></svg>
